X: 114
M:9/8
L:1/8
K:G
uD"^Segno"|\
vG2B d2B d2B | G2B d2B c2A | G2B d2B d2B | ABA A2B c2A |
 G2B d2B d2B | G2B d2B c2A | G2B d2B d2A | ABA A2B c2A "^Segno"|]


